images_sukapura_svg/cmd/lc_showannotations.svg

<svg viewBox="0 0 24 24" xmlns="http://www.w3.org/2000/svg" xmlns:xlink="http://www.w3.org/1999/xlink"><linearGradient id="a" gradientUnits="userSpaceOnUse" x1="7" x2="7" y1="20" y2="3"><stop offset="0" stop-color="#f5f5f5"/><stop offset=".3888889" stop-color="#fdfdfd"/><stop offset="1" stop-color="#fff"/></linearGradient><path d="m4 2c-1.108 0-2 .892-2 2v11c0 1.108.892 2 2 2h2v4.5c.00113.433187.5150257.660119.8359375.369141l5.3574215-4.869141h7.806641c1.108 0 2-.892 2-2v-11c0-1.108-.892-2-2-2zm0 1h16c.554 0 1 .446 1 1v11c0 .554-.446 1-1 1h-8.132812l-1.158204 1-3.708984 3.371094v-3.371094-1h-3c-.554 0-1-.446-1-1v-11c0-.554.446-1 1-1z" fill="#98989d"/><path d="m4 3c-.554 0-1 .446-1 1v11c0 .554.446 1 1 1h3v4.371094l4.867188-4.371094h8.132812c.554 0 1-.446 1-1v-11c0-.554-.446-1-1-1z" fill="url(#a)"/></svg>

<?xml version="1.0" encoding="UTF-8" standalone="no"?>
<svg
   xmlns:dc="http://purl.org/dc/elements/1.1/"
   xmlns:cc="http://creativecommons.org/ns#"
   xmlns:rdf="http://www.w3.org/1999/02/22-rdf-syntax-ns#"
   xmlns:svg="http://www.w3.org/2000/svg"
   xmlns="http://www.w3.org/2000/svg"
   xmlns:xlink="http://www.w3.org/1999/xlink"
   xmlns:sodipodi="http://sodipodi.sourceforge.net/DTD/sodipodi-0.dtd"
   xmlns:inkscape="http://www.inkscape.org/namespaces/inkscape"
   viewBox="0 0 24 24"
   version="1.1"
   id="svg4"
   sodipodi:docname="lc_showannotations.svg"
   inkscape:export-filename="/home/rizmut/Dokumen/Rizmut/Github/libreoffice-style-colibrex/images_colibrex/cmd/lc_showannotations.png"
   inkscape:export-xdpi="96"
   inkscape:export-ydpi="96"
   inkscape:version="0.92.3 (unknown)">
  <metadata
     id="metadata10">
    <rdf:RDF>
      <cc:Work
         rdf:about="">
        <dc:format>image/svg+xml</dc:format>
        <dc:type
           rdf:resource="http://purl.org/dc/dcmitype/StillImage" />
        <dc:title />
      </cc:Work>
    </rdf:RDF>
  </metadata>
  <defs
     id="defs8">
    <linearGradient
       inkscape:collect="always"
       id="linearGradient883">
      <stop
         style="stop-color:#f5f5f5;stop-opacity:1;"
         offset="0"
         id="stop879" />
      <stop
         id="stop887"
         offset="0.3888889"
         style="stop-color:#fdfdfd;stop-opacity:1" />
      <stop
         style="stop-color:#ffffff;stop-opacity:1"
         offset="1"
         id="stop881" />
    </linearGradient>
    <clipPath
       clipPathUnits="userSpaceOnUse"
       id="clipPath875">
      <rect
         style="opacity:1;fill:#ffffff;fill-opacity:1;stroke:none;stroke-width:0.75955451;stroke-miterlimit:4;stroke-dasharray:none;stroke-opacity:1"
         id="rect877"
         width="200"
         height="144"
         x="-40"
         y="72"
         rx="0.83333331"
         ry="0.69230771" />
    </clipPath>
    <linearGradient
       inkscape:collect="always"
       xlink:href="#linearGradient883"
       id="linearGradient885"
       x1="7"
       y1="20"
       x2="7"
       y2="3"
       gradientUnits="userSpaceOnUse" />
  </defs>
  <sodipodi:namedview
     pagecolor="#ffffff"
     bordercolor="#666666"
     borderopacity="1"
     objecttolerance="10"
     gridtolerance="10"
     guidetolerance="10"
     inkscape:pageopacity="0"
     inkscape:pageshadow="2"
     inkscape:window-width="1366"
     inkscape:window-height="706"
     id="namedview6"
     showgrid="true"
     inkscape:snap-smooth-nodes="true"
     inkscape:zoom="3.4766084"
     inkscape:cx="50.978569"
     inkscape:cy="-6.3907612"
     inkscape:window-x="0"
     inkscape:window-y="0"
     inkscape:window-maximized="1"
     inkscape:current-layer="svg4"
     inkscape:snap-grids="true">
    <inkscape:grid
       type="xygrid"
       id="grid817"
       spacingx="0.5"
       spacingy="0.5"
       empspacing="2" />
  </sodipodi:namedview>
  <path
     style="fill:#98989d;fill-opacity:1"
     d="M 4 2 C 2.892 2 2 2.892 2 4 L 2 15 C 2 16.108 2.892 17 4 17 L 6 17 L 6 21.5 C 6.00113 21.933187 6.5150257 22.160119 6.8359375 21.869141 L 12.193359 17 L 20 17 C 21.108 17 22 16.108 22 15 L 22 4 C 22 2.892 21.108 2 20 2 L 4 2 z M 4 3 L 20 3 C 20.554 3 21 3.446 21 4 L 21 15 C 21 15.554 20.554 16 20 16 L 11.867188 16 L 10.708984 17 L 7 20.371094 L 7 17 L 7 16 L 4 16 C 3.446 16 3 15.554 3 15 L 3 4 C 3 3.446 3.446 3 4 3 z "
     id="path4" />
  <path
     style="opacity:1;fill:url(#linearGradient885);fill-opacity:1;stroke:none;stroke-width:1;stroke-miterlimit:4;stroke-dasharray:none;stroke-opacity:1"
     d="M 4 3 C 3.446 3 3 3.446 3 4 L 3 15 C 3 15.554 3.446 16 4 16 L 7 16 L 7 20.371094 L 11.867188 16 L 20 16 C 20.554 16 21 15.554 21 15 L 21 4 C 21 3.446 20.554 3 20 3 L 4 3 z "
     id="rect853" />
</svg>
